COLOR/action 16/16/package-install.svg

<svg height="16" width="16" xmlns="http://www.w3.org/2000/svg"><path d="m1.355932 2.237288h13.491526v11.18644h-13.491526z" fill="#fff"/><path d="m5.3261719 0c-1.67759.0195-2.9064963-.04015813-3.9101563.51367188-.50182995.27685999-.89762746.74519812-1.11718748 1.33007812-.21956.58488-.29882812 1.27944-.29882812 2.15625v8c0 .87681.07924813 1.57137.29882812 2.15625.21956002.58488.61535753 1.053218 1.11718748 1.330078 1.00366.55376 2.2325663.494242 3.9101563.513672h.0039062 5.3398439.003906c1.67759-.0195 2.904543.04016 3.908203-.513672.50183-.27686.897628-.745198 1.117188-1.330078.219982-.58488.300781-1.27944.300781-2.15625v-8c0-.87681-.079248-1.57136-.298828-2.15625-.21955-.58488-.615358-1.05319813-1.117188-1.33007812-1.00366-.55379-2.232556-.49431188-3.910156-.51367188h-.003906-2.0039064-3.3359375zm7.8066401 2.7714844c.673476.1265709 1.135165 1.1176894.638672 1.6582031l-6.9999996 8.0000005-.6875.8125-.78125-.75-3-3.0000005c-.37638-.37633-.37635-1.06114 0-1.4375.37636-.37635 1.06117-.37638 1.4375 0l2.25 2.2500005 6.2812496-7.1875005c.14191-.17322.34362-.29645.5625-.34375.102709-.0210687.202618-.0200347.298828-.0019531z" fill="#76c22b"/><path d="m5.3261719 0c-1.67759.0195-2.9064963-.04015813-3.9101563.51367188-.50182992.27685998-.89762746.74519812-1.11718748 1.33007812-.21956.58488-.29882812 1.27944-.29882812 2.15625v.5c0-.87681.07926812-1.57137.29882812-2.15625.21956003-.58488.61535756-1.0532181 1.11718748-1.3300781 1.00366-.55383005 2.2325663-.4941719 3.9101563-.5136719h.00391 3.3359375 2.0039064.0039c1.6776.01936 2.906496-.0401182 3.910156.5136719.50183.27688.897638.7451981 1.117188 1.3300781.2195822.58489.2988302 1.27944.2988302 2.15625v-.5c0-.87681-.079248-1.57136-.298828-2.15625-.21955-.58488-.615358-1.05319814-1.117188-1.33007812-1.00366-.55379-2.232556-.49431188-3.910156-.51367188h-.0039-2.0039064-3.3359375z" fill="#fff" opacity=".3"/><path d="m10.673828 16c1.67759-.0195 2.906496.04016 3.910156-.513672.50183-.27686.897628-.745198 1.117188-1.330078s.298828-1.27944.298828-2.15625v-.5c0 .87681-.07927 1.57137-.298828 2.15625-.21956.58488-.615358 1.053218-1.117188 1.330078-1.00366.55383-2.232566.494172-3.910156.513672h-.0039-3.3359374-2.0039064-.0039c-1.67761-.01936-2.906506.04012-3.910166-.513672-.50183-.27688-.897638-.745198-1.117188-1.330078-.2195822-.58489-.2988302-1.27944-.2988302-2.15625v.5c0 .87681.079248 1.57136.298828 2.15625.21955.58488.615358 1.053198 1.117188 1.330078 1.00366.55379 2.232556.494312 3.910156.513672h.0039 2.0039064 3.3359376z" opacity=".2"/></svg>

<?xml version="1.0" encoding="UTF-8" standalone="no"?>
<svg
   xmlns:dc="http://purl.org/dc/elements/1.1/"
   xmlns:cc="http://creativecommons.org/ns#"
   xmlns:rdf="http://www.w3.org/1999/02/22-rdf-syntax-ns#"
   xmlns:svg="http://www.w3.org/2000/svg"
   xmlns="http://www.w3.org/2000/svg"
   xmlns:sodipodi="http://sodipodi.sourceforge.net/DTD/sodipodi-0.dtd"
   xmlns:inkscape="http://www.inkscape.org/namespaces/inkscape"
   height="16"
   width="16"
   version="1.1"
   id="svg6"
   sodipodi:docname="package-install.svg"
   inkscape:version="0.92.4 (5da689c313, 2019-01-14)">
  <metadata
     id="metadata12">
    <rdf:RDF>
      <cc:Work
         rdf:about="">
        <dc:format>image/svg+xml</dc:format>
        <dc:type
           rdf:resource="http://purl.org/dc/dcmitype/StillImage" />
      </cc:Work>
    </rdf:RDF>
  </metadata>
  <defs
     id="defs10" />
  <sodipodi:namedview
     pagecolor="#ffffff"
     bordercolor="#666666"
     borderopacity="1"
     objecttolerance="10"
     gridtolerance="10"
     guidetolerance="10"
     inkscape:pageopacity="0"
     inkscape:pageshadow="2"
     inkscape:window-width="1920"
     inkscape:window-height="1016"
     id="namedview8"
     showgrid="false"
     inkscape:zoom="14.75"
     inkscape:cx="-4.9830508"
     inkscape:cy="8"
     inkscape:window-x="0"
     inkscape:window-y="27"
     inkscape:window-maximized="1"
     inkscape:current-layer="svg6" />
  <path
     d="m1.355932 2.237288h13.491526v11.18644h-13.491526z"
     fill="#fff"
     id="path2" />
  <path
     d="m5.3261719 0c-1.67759.0195-2.9064963-.04015813-3.9101563.51367188-.50182995.27685999-.89762746.74519812-1.11718748 1.33007812-.21956.58488-.29882812 1.27944-.29882812 2.15625v8c0 .87681.07924813 1.57137.29882812 2.15625.21956002.58488.61535753 1.053218 1.11718748 1.330078 1.00366.55376 2.2325663.494242 3.9101563.513672h.0039062 5.3398439.003906c1.67759-.0195 2.904543.04016 3.908203-.513672.50183-.27686.897628-.745198 1.117188-1.330078.219982-.58488.300781-1.27944.300781-2.15625v-8c0-.87681-.079248-1.57136-.298828-2.15625-.21955-.58488-.615358-1.05319813-1.117188-1.33007812-1.00366-.55379-2.232556-.49431188-3.910156-.51367188h-.003906-2.0039064-3.3359375zm7.8066401 2.7714844c.673476.1265709 1.135165 1.1176894.638672 1.6582031l-6.9999996 8.0000005-.6875.8125-.78125-.75-3-3.0000005c-.37638-.37633-.37635-1.06114 0-1.4375.37636-.37635 1.06117-.37638 1.4375 0l2.25 2.2500005 6.2812496-7.1875005c.14191-.17322.34362-.29645.5625-.34375.102709-.0210687.202618-.0200347.298828-.0019531z"
     fill="#76c22b"
     id="path4" />
  <path
     d="M 5.3261719,0 C 3.6485819,0.0195 2.4196756,-0.04015813 1.4160156,0.51367188 0.91418568,0.79053186 0.51838814,1.25887 0.29882812,1.84375 0.07926812,2.42863 0,3.12319 0,4 V 4.5 C 0,3.62319 0.07926812,2.92863 0.29882812,2.34375 0.51838815,1.75887 0.91418568,1.2905319 1.4160156,1.0136719 2.4196756,0.45984185 3.6485819,0.5195 5.3261719,0.5 h 0.00391 3.3359375 2.0039064 0.0039 c 1.6776,0.01936 2.906496,-0.0401182 3.910156,0.5136719 0.50183,0.27688 0.897638,0.7451981 1.117188,1.3300781 C 15.920752,2.92864 16,3.62319 16,4.5 V 4 C 16,3.12319 15.920752,2.42864 15.701172,1.84375 15.481622,1.25887 15.085814,0.79055186 14.583984,0.51367188 13.580324,-0.04011812 12.351428,0.01936 10.673828,0 h -0.0039 -2.0039064 -3.3359375 z"
     id="path822"
     inkscape:connector-curvature="0"
     sodipodi:nodetypes="ccsscscccccccccsccccccc"
     style="fill:#ffffff;fill-opacity:1;opacity:0.3" />
  <path
     style="opacity:0.2;fill:#000000;fill-opacity:1"
     sodipodi:nodetypes="ccsscscccccccccsccccccc"
     inkscape:connector-curvature="0"
     id="path827"
     d="m 10.673828,16 c 1.67759,-0.0195 2.906496,0.04016 3.910156,-0.513672 0.50183,-0.27686 0.897628,-0.745198 1.117188,-1.330078 C 15.920732,13.57137 16,12.87681 16,12 v -0.5 c 0,0.87681 -0.07927,1.57137 -0.298828,2.15625 -0.21956,0.58488 -0.615358,1.053218 -1.117188,1.330078 -1.00366,0.55383 -2.232566,0.494172 -3.910156,0.513672 h -0.0039 -3.3359374 -2.0039064 -0.0039 c -1.67761,-0.01936 -2.906506,0.04012 -3.910166,-0.513672 C 0.9141882,14.709448 0.5183802,14.24113 0.2988302,13.65625 0.079248,13.07136 0,12.37681 0,11.5 V 12 c 0,0.87681 0.079248,1.57136 0.298828,2.15625 0.21955,0.58488 0.615358,1.053198 1.117188,1.330078 C 2.419676,16.040118 3.648572,15.98064 5.326172,16 h 0.0039 2.0039064 3.3359376 z" />
</svg>
